app/assets/images/Contenido/Odin/Sostenibilidad.svg

<svg fill="none" height="131" viewBox="0 0 146 131" width="146" xmlns="http://www.w3.org/2000/svg"><path d="m11.1193 61.7585c.8477-15.7781 7.5952-29.9903 18.0729-40.4691 11.2227-11.2224 26.7278-18.16513 43.8482-18.16513 5.4032 0 10.7985.72131 16.0383 2.12571 5.1857 1.38713 10.2222 3.47178 14.9673 6.21322 5.293 3.0642 7.098 9.8427 4.034 15.1351-3.064 5.2928-9.8422 7.0982-15.1347 4.0337-2.9912-1.727-6.2189-3.0549-9.5921-3.9575-3.3129-.8875-6.7833-1.3443-10.3128-1.3443-10.9931 0-20.9468 4.4562-28.1495 11.6571-6.4544 6.4568-10.7045 15.1253-11.515 24.7709h3.9549v.0147c.5699-.0005 1.1467.1439 1.676.4475 1.6112.9249 2.166 2.9821 1.2407 4.5924l-7.4989 12.9913c-.0314.0629-.064.1241-.0997.1858l-7.5779 13.1228c-.2857.5106-.708.9529-1.2509 1.2673-1.61.9329-3.6728.3837-4.6051-1.2268l-7.6012-13.163.0054-.0031-.0054-.0102-7.4366-12.8823c-.39337-.5526-.62447-1.228-.62447-1.957 0-1.866 1.51259-3.3791 3.37861-3.3791z" fill="#c8d85f"/><path d="m134.962 68.5157c-.848 15.7763-7.594 29.99-18.074 40.4693-11.222 11.221-26.7242 18.165-43.8474 18.165-5.4044 0-10.798-.721-16.0389-2.126-5.1849-1.387-10.2222-3.473-14.9673-6.213-5.2927-3.065-7.0987-9.843-4.0342-15.135 3.0651-5.2938 9.8433-7.0987 15.1358-4.0341 2.9903 1.7271 6.218 3.0551 9.5906 3.9581 3.3143.887 6.7836 1.344 10.314 1.344 10.9925 0 20.9465-4.458 28.1484-11.6583 6.456-6.4562 10.705-15.1247 11.516-24.77h-3.955c-1.866 0-3.379-1.5126-3.379-3.3781 0-.7295.232-1.4055.624-1.958l7.436-12.8821.007-.0099-.007-.0037 7.602-13.1635c.932-1.6106 2.995-2.1597 4.606-1.2268.542.3138.964.7564 1.25 1.2673l7.578 13.123c.036.0615.068.1227.1.1855l7.499 12.9914c.925 1.6111.37 3.6674-1.24 4.5924-.529.3041-1.107.4486-1.676.448v.0142h-4.189v.0003z" fill="#46b778"/><g fill="#000003"><path d="m35.4041 81.2465 7.4635-12.9288c.849-1.4783 1.0722-3.1991.6273-4.8456-.4449-1.6471-1.5044-3.0218-2.985-3.8719-.8453-.4849-1.7907-.7698-2.7615-.8341-.1365-.0189-.2758-.0286-.4177-.0286h-.5194c1.3019-7.389 4.8615-14.2581 10.2151-19.6137 6.9481-6.947 16.1865-10.7728 26.0136-10.7728 3.2494 0 6.4564.4175 9.532 1.2416 3.1288.8372 6.1107 2.0668 8.8586 3.6536 2.1464 1.2424 4.5856 1.8992 7.0543 1.8992 5.0191-.0003 9.6981-2.6953 12.2081-7.0337 1.887-3.2576 2.392-7.0559 1.422-10.6945-.97-3.6389-3.298-6.6822-6.558-8.5703-4.955-2.86233-10.2372-5.05431-15.6965-6.51507-5.5185-1.479166-11.1772-2.228803-16.8205-2.228803-17.3685 0-33.7 6.765703-45.9847 19.049873-10.6833 10.685-17.27255 24.6485-18.73614 39.5843h-1.38854c-3.52757.0003-6.398393 2.8714-6.398393 6.4004 0 1.2826.376376 2.514 1.089763 3.5726l7.28142 12.6127c.02973.0601.06088.1192.09487.1776l7.60252 13.1666c1.1388 1.9669 3.2594 3.1889 5.5338 3.1889 1.1207 0 2.2274-.2979 3.1994-.8609.9864-.571 1.8023-1.3954 2.361-2.3852l7.5666-13.1035c.0504-.0866.0972-.1727.1425-.2599zm-5.371-2.7672-7.5782 13.123c-.0065.0116-.0133.0232-.0195.0351-.0306.0541-.0722.096-.1294.1289-.0553.0317-.1113.0473-.1717.0473-.0478 0-.2112-.0128-.303-.1711l-7.506-12.9987c-.0136-.0274-.0275-.0549-.0419-.0821-.0173-.032-.0348-.064-.053-.0954l-7.43685-12.8821c-.04786-.0829-.09969-.1637-.1552-.2415-.04333-.0618-.06428-.1283-.06428-.2054 0-.1976.16029-.3582.35768-.3582h4.18795c1.6052 0 2.9306-1.2557 3.0164-2.8589.7797-14.5156 6.8855-28.1866 17.1924-38.4949 11.1437-11.1434 25.9572-17.28043 41.712-17.28043 5.1152 0 10.2483.68053 15.2576 2.02319 4.9503 1.32426 9.7399 3.31294 14.2349 5.90934 3.842 2.2254 5.158 7.163 2.933 11.0075-1.436 2.4788-4.11 4.0186-6.9814 4.0189-1.4064 0-2.7992-.3755-4.0294-1.0878-3.209-1.8527-6.6819-3.2857-10.3205-4.2593-3.5842-.9601-7.3174-1.4469-11.0944-1.4469-11.4409 0-22.1963 4.4542-30.286 12.5424-7.1452 7.1478-11.5453 16.6138-12.389 26.6536-.0708.8423.2144 1.6755.7868 2.2977.572.6222 1.3783.9764 2.2237.9764h3.6575c.0992.0097.1991.0148.3005.0148.0589 0 .1144.0153.1682.0461.0813.0465.1348.1164.1592.2073.0244.0912.0133.1793-.0306.2552l-7.4995 12.9913c-.0289.0519-.0711.1306-.098.1847z"/><path d="m144.683 61.9505-7.461-12.9234c-.044-.0863-.09-.171-.139-.2537l-7.57-13.1094c-.559-.9893-1.374-1.8134-2.36-2.3843-.973-.5633-2.079-.8612-3.201-.8612-2.274 0-4.395 1.2217-5.535 3.1916l-7.601 13.1636c-.034.0583-.066.1175-.095.1773l-7.281 12.6129c-.713 1.0587-1.09 2.2906-1.09 3.5738 0 3.5284 2.871 6.3989 6.4 6.3989h.519c-1.302 7.3899-4.862 14.259-10.216 19.6129-6.9486 6.9473-16.1864 10.7735-26.0127 10.7735-3.2492 0-6.4564-.418-9.5329-1.241-3.1293-.8379-6.1109-2.0675-8.8577-3.654-2.1455-1.2424-4.585-1.8995-7.0537-1.8995-5.0192 0-9.698 2.695-12.21 7.0335-3.8952 6.727-1.5916 15.368 5.1379 19.265 4.9563 2.863 10.238 5.055 15.6956 6.515 5.5148 1.479 11.1743 2.229 16.8211 2.229 17.3677 0 33.6984-6.765 45.9834-19.05 10.684-10.683 17.273-24.6474 18.737-39.5844h1.389c.136 0 .27-.009.401-.0266.975-.0617 1.93-.348 2.779-.8371 3.052-1.7531 4.109-5.6632 2.353-8.7224zm-5.365 3.4845c-.053.0306-.107.0454-.165.0454-.1-.0102-.196.0045-.292.0141h-3.9c-1.605 0-2.93 1.2557-3.016 2.8587-.78 14.5172-6.886 28.1882-17.193 38.4948-11.145 11.143-25.9574 17.28-41.7114 17.28-5.1183 0-10.2514-.68-15.2578-2.023-4.949-1.324-9.7388-3.313-14.2343-5.909-3.8434-2.226-5.1594-7.164-2.934-11.008 1.4355-2.479 4.1104-4.019 6.9815-4.019 1.4072 0 2.7995.376 4.0291 1.088 3.2081 1.852 6.6805 3.285 10.3202 4.259 3.5851.96 7.3185 1.447 11.095 1.447 11.4391 0 22.1946-4.454 30.2847-12.5425 7.146-7.1455 11.546-16.6112 12.39-26.6533.071-.8423-.214-1.6754-.787-2.2976-.571-.6222-1.378-.9759-2.223-.9759h-3.955c-.197 0-.358-.1601-.358-.3572 0-.0776.021-.1452.064-.2064.056-.0782.108-.1589.156-.2416l7.416-12.848c.044-.0734.085-.1484.122-.2249l7.497-12.9828c.094-.1615.258-.1739.305-.1739.061 0 .117.0156.172.0473.056.0323.098.0745.128.1288.007.0116.014.0235.02.0351l7.592 13.1489c.027.054.056.1073.086.1594l7.495 12.9851c.095.166.039.3761-.127.4715z"/><path d="m31.5487 41.2107.0527-.0895c.0983-.1677.196-.3351.2962-.501.8641-1.4273.4078-3.2849-1.0195-4.1486-1.4268-.8638-3.2846-.4076-4.1486 1.0195-.115.1903-.228.3823-.3407.5749l-.0513.0875c-.8439 1.4392-.3619 3.29 1.077 4.1345.4803.2818 1.0065.4157 1.5259.4157 1.0365-.0006 2.0461-.5347 2.6083-1.493z"/><path d="m118.65 87.985c-1.44-.8431-3.29-.3589-4.133 1.0812l-.033.0572c-.106.1799-.211.3591-.318.5364-.861 1.4288-.4 3.2854 1.029 4.1467.487.2939 1.025.4338 1.556.4338 1.024 0 2.023-.5211 2.59-1.4621.121-.1997.239-.4016.357-.6038l.033-.0561c.842-1.4404.359-3.2908-1.081-4.1333z"/><path d="m32.8298 33.7568c.5744.5058 1.2863.7539 1.9952.7539.8374 0 1.6712-.3461 2.2685-1.0243 9.0882-10.3197 22.188-16.238 35.9403-16.238 4.1841 0 8.3536.5488 12.3924 1.6312 1.612.4316 3.2679-.5245 3.7-2.1356.4319-1.6117-.5239-3.2679-2.1359-3.7-4.5491-1.2192-9.2446-1.8375-13.9565-1.8375-15.4872 0-30.2395 6.6652-40.4744 18.2867-1.1025 1.252-.9813 3.1611.2704 4.2636z"/><path d="m113.237 96.5177c-1.252-1.1028-3.161-.9819-4.263.2705-9.0889 10.3188-22.1884 16.2378-35.9401 16.2378-4.1829 0-8.3525-.549-12.3932-1.632-1.6117-.432-3.2679.525-3.7001 2.136-.4319 1.612.5245 3.268 2.1359 3.7 4.5505 1.22 9.2463 1.838 13.9574 1.838 15.4863 0 30.2381-6.665 40.4731-18.286 1.103-1.2527.982-3.1615-.27-4.2643z"/></g></svg>

<svg width="146" height="131" viewBox="0 0 146 131" fill="none" xmlns="http://www.w3.org/2000/svg">
<path d="M11.1193 61.7585C11.967 45.9804 18.7145 31.7682 29.1922 21.2894C40.4149 10.067 55.92 3.12427 73.0404 3.12427C78.4436 3.12427 83.8389 3.84558 89.0787 5.24998C94.2644 6.63711 99.3009 8.72176 104.046 11.4632C109.339 14.5274 111.144 21.3059 108.08 26.5983C105.016 31.8911 98.2378 33.6965 92.9453 30.632C89.9541 28.905 86.7264 27.5771 83.3532 26.6745C80.0403 25.787 76.5699 25.3302 73.0404 25.3302C62.0473 25.3302 52.0936 29.7864 44.8909 36.9873C38.4365 43.4441 34.1864 52.1126 33.3759 61.7582H37.3308V61.7729C37.9007 61.7724 38.4775 61.9168 39.0068 62.2204C40.618 63.1453 41.1728 65.2025 40.2475 66.8128L32.7486 79.8041C32.7172 79.867 32.6846 79.9282 32.6489 79.9899L25.071 93.1127C24.7853 93.6233 24.363 94.0656 23.8201 94.38C22.2101 95.3129 20.1473 94.7637 19.215 93.1532L11.6138 79.9902L11.6192 79.9871L11.6138 79.9769L4.1772 67.0946C3.78383 66.542 3.55273 65.8666 3.55273 65.1376C3.55273 63.2716 5.06532 61.7585 6.93134 61.7585H11.1193Z" fill="#C8D85F"/>
<path d="M134.962 68.5157C134.114 84.292 127.368 98.5057 116.888 108.985C105.666 120.206 90.1638 127.15 73.0406 127.15C67.6362 127.15 62.2426 126.429 57.0017 125.024C51.8168 123.637 46.7795 121.551 42.0344 118.811C36.7417 115.746 34.9357 108.968 38.0002 103.676C41.0653 98.3822 47.8435 96.5773 53.136 99.6419C56.1263 101.369 59.354 102.697 62.7266 103.6C66.0409 104.487 69.5102 104.944 73.0406 104.944C84.0331 104.944 93.9871 100.486 101.189 93.2857C107.645 86.8295 111.894 78.161 112.705 68.5157H108.75C106.884 68.5157 105.371 67.0031 105.371 65.1376C105.371 64.4081 105.603 63.7321 105.995 63.1796L113.431 50.2975L113.438 50.2876L113.431 50.2839L121.033 37.1204C121.965 35.5098 124.028 34.9607 125.639 35.8936C126.181 36.2074 126.603 36.65 126.889 37.1609L134.467 50.2839C134.503 50.3454 134.535 50.4066 134.567 50.4694L142.066 63.4608C142.991 65.0719 142.436 67.1282 140.826 68.0532C140.297 68.3573 139.719 68.5018 139.15 68.5012V68.5154H134.961V68.5157H134.962Z" fill="#46B778"/>
<path d="M35.4041 81.2465L42.8676 68.3177C43.7166 66.8394 43.9398 65.1186 43.4949 63.4721C43.05 61.825 41.9905 60.4503 40.5099 59.6002C39.6646 59.1153 38.7192 58.8304 37.7484 58.7661C37.6119 58.7472 37.4726 58.7375 37.3307 58.7375H36.8113C38.1132 51.3485 41.6728 44.4794 47.0264 39.1238C53.9745 32.1768 63.2129 28.351 73.04 28.351C76.2894 28.351 79.4964 28.7685 82.572 29.5926C85.7008 30.4298 88.6827 31.6594 91.4306 33.2462C93.577 34.4886 96.0162 35.1454 98.4849 35.1454C103.504 35.1451 108.183 32.4501 110.693 28.1117C112.58 24.8541 113.085 21.0558 112.115 17.4172C111.145 13.7783 108.817 10.735 105.557 8.8469C100.602 5.98457 95.3198 3.79259 89.8605 2.33183C84.342 0.852664 78.6833 0.103027 73.04 0.103027C55.6715 0.103027 39.34 6.86873 27.0553 19.1529C16.372 29.8379 9.78275 43.8014 8.31916 58.7372H6.93062C3.40305 58.7375 0.532227 61.6086 0.532227 65.1376C0.532227 66.4202 0.908603 67.6516 1.62199 68.7102L8.90341 81.3229C8.93314 81.383 8.96429 81.4421 8.99828 81.5005L16.6008 94.6671C17.7396 96.634 19.8602 97.856 22.1346 97.856C23.2553 97.856 24.362 97.5581 25.334 96.9951C26.3204 96.4241 27.1363 95.5997 27.695 94.6099L35.2616 81.5064C35.312 81.4198 35.3588 81.3337 35.4041 81.2465ZM30.0331 78.4793L22.4549 91.6023C22.4484 91.6139 22.4416 91.6255 22.4354 91.6374C22.4048 91.6915 22.3632 91.7334 22.306 91.7663C22.2507 91.798 22.1947 91.8136 22.1343 91.8136C22.0865 91.8136 21.9231 91.8008 21.8313 91.6425L14.3253 78.6438C14.3117 78.6164 14.2978 78.5889 14.2834 78.5617C14.2661 78.5297 14.2486 78.4977 14.2304 78.4663L6.79355 65.5842C6.74569 65.5013 6.69386 65.4205 6.63835 65.3427C6.59502 65.2809 6.57407 65.2144 6.57407 65.1373C6.57407 64.9397 6.73436 64.7791 6.93175 64.7791H11.1197C12.7249 64.7791 14.0503 63.5234 14.1361 61.9202C14.9158 47.4046 21.0216 33.7336 31.3285 23.4253C42.4722 12.2819 57.2857 6.14487 73.0405 6.14487C78.1557 6.14487 83.2888 6.8254 88.2981 8.16806C93.2484 9.49232 98.038 11.481 102.533 14.0774C106.375 16.3028 107.691 21.2404 105.466 25.0849C104.03 27.5637 101.356 29.1035 98.4846 29.1038C97.0782 29.1038 95.6854 28.7283 94.4552 28.016C91.2462 26.1633 87.7733 24.7303 84.1347 23.7567C80.5505 22.7966 76.8173 22.3098 73.0403 22.3098C61.5994 22.3098 50.844 26.764 42.7543 34.8522C35.6091 42 31.209 51.466 30.3653 61.5058C30.2945 62.3481 30.5797 63.1813 31.1521 63.8035C31.7241 64.4257 32.5304 64.7799 33.3758 64.7799H37.0333C37.1325 64.7896 37.2324 64.7947 37.3338 64.7947C37.3927 64.7947 37.4482 64.81 37.502 64.8408C37.5833 64.8873 37.6368 64.9572 37.6612 65.0481C37.6856 65.1393 37.6745 65.2274 37.6306 65.3033L30.1311 78.2946C30.1022 78.3465 30.06 78.4252 30.0331 78.4793Z" fill="#000003"/>
<path d="M144.683 61.9505L137.222 49.0271C137.178 48.9408 137.132 48.8561 137.083 48.7734L129.513 35.664C128.954 34.6747 128.139 33.8506 127.153 33.2797C126.18 32.7164 125.074 32.4185 123.952 32.4185C121.678 32.4185 119.557 33.6402 118.417 35.6101L110.816 48.7737C110.782 48.832 110.75 48.8912 110.721 48.951L103.44 61.5639C102.727 62.6226 102.35 63.8545 102.35 65.1377C102.35 68.6661 105.221 71.5366 108.75 71.5366H109.269C107.967 78.9265 104.407 85.7956 99.053 91.1495C92.1044 98.0968 82.8666 101.923 73.0403 101.923C69.7911 101.923 66.5839 101.505 63.5074 100.682C60.3781 99.8441 57.3965 98.6145 54.6497 97.028C52.5042 95.7856 50.0647 95.1285 47.596 95.1285C42.5768 95.1285 37.898 97.8235 35.386 102.162C31.4908 108.889 33.7944 117.53 40.5239 121.427C45.4802 124.29 50.7619 126.482 56.2195 127.942C61.7343 129.421 67.3938 130.171 73.0406 130.171C90.4083 130.171 106.739 123.406 119.024 111.121C129.708 100.438 136.297 86.4736 137.761 71.5366H139.15C139.286 71.5366 139.42 71.5276 139.551 71.51C140.526 71.4483 141.481 71.162 142.33 70.6729C145.382 68.9198 146.439 65.0097 144.683 61.9505ZM139.318 65.435C139.265 65.4656 139.211 65.4804 139.153 65.4804C139.053 65.4702 138.957 65.4849 138.861 65.4945H134.961C133.356 65.4945 132.031 66.7502 131.945 68.3532C131.165 82.8704 125.059 96.5414 114.752 106.848C103.607 117.991 88.7946 124.128 73.0406 124.128C67.9223 124.128 62.7892 123.448 57.7828 122.105C52.8338 120.781 48.044 118.792 43.5485 116.196C39.7051 113.97 38.3891 109.032 40.6145 105.188C42.05 102.709 44.7249 101.169 47.596 101.169C49.0032 101.169 50.3955 101.545 51.6251 102.257C54.8332 104.109 58.3056 105.542 61.9453 106.516C65.5304 107.476 69.2638 107.963 73.0403 107.963C84.4794 107.963 95.2349 103.509 103.325 95.4205C110.471 88.275 114.871 78.8093 115.715 68.7672C115.786 67.9249 115.501 67.0918 114.928 66.4696C114.357 65.8474 113.55 65.4937 112.705 65.4937H108.75C108.553 65.4937 108.392 65.3336 108.392 65.1365C108.392 65.0589 108.413 64.9913 108.456 64.9301C108.512 64.8519 108.564 64.7712 108.612 64.6885L116.028 51.8405C116.072 51.7671 116.113 51.6921 116.15 51.6156L123.647 38.6328C123.741 38.4713 123.905 38.4589 123.952 38.4589C124.013 38.4589 124.069 38.4745 124.124 38.5062C124.18 38.5385 124.222 38.5807 124.252 38.635C124.259 38.6466 124.266 38.6585 124.272 38.6701L131.864 51.819C131.891 51.873 131.92 51.9263 131.95 51.9784L139.445 64.9635C139.54 65.1295 139.484 65.3396 139.318 65.435Z" fill="#000003"/>
<path d="M31.5487 41.2107L31.6014 41.1212C31.6997 40.9535 31.7974 40.7861 31.8976 40.6202C32.7617 39.1929 32.3054 37.3353 30.8781 36.4716C29.4513 35.6078 27.5935 36.064 26.7295 37.4911C26.6145 37.6814 26.5015 37.8734 26.3888 38.066L26.3375 38.1535C25.4936 39.5927 25.9756 41.4435 27.4145 42.288C27.8948 42.5698 28.421 42.7037 28.9404 42.7037C29.9769 42.7031 30.9865 42.169 31.5487 41.2107Z" fill="#000003"/>
<path d="M118.65 87.985C117.21 87.1419 115.36 87.6261 114.517 89.0662L114.484 89.1234C114.378 89.3033 114.273 89.4825 114.166 89.6598C113.305 91.0886 113.766 92.9452 115.195 93.8065C115.682 94.1004 116.22 94.2403 116.751 94.2403C117.775 94.2403 118.774 93.7192 119.341 92.7782C119.462 92.5785 119.58 92.3766 119.698 92.1744L119.731 92.1183C120.573 90.6779 120.09 88.8275 118.65 87.985Z" fill="#000003"/>
<path d="M32.8298 33.7568C33.4042 34.2626 34.1161 34.5107 34.825 34.5107C35.6624 34.5107 36.4962 34.1646 37.0935 33.4864C46.1817 23.1667 59.2815 17.2484 73.0338 17.2484C77.2179 17.2484 81.3874 17.7972 85.4262 18.8796C87.0382 19.3112 88.6941 18.3551 89.1262 16.744C89.5581 15.1323 88.6023 13.4761 86.9903 13.044C82.4412 11.8248 77.7457 11.2065 73.0338 11.2065C57.5466 11.2065 42.7943 17.8717 32.5594 29.4932C31.4569 30.7452 31.5781 32.6543 32.8298 33.7568Z" fill="#000003"/>
<path d="M113.237 96.5177C111.985 95.4149 110.076 95.5358 108.974 96.7882C99.8851 107.107 86.7856 113.026 73.0339 113.026C68.851 113.026 64.6814 112.477 60.6407 111.394C59.029 110.962 57.3728 111.919 56.9406 113.53C56.5087 115.142 57.4651 116.798 59.0765 117.23C63.627 118.45 68.3228 119.068 73.0339 119.068C88.5202 119.068 103.272 112.403 113.507 100.782C114.61 99.5293 114.489 97.6205 113.237 96.5177Z" fill="#000003"/>
</svg>
